public/flags/SM.svg

<svg fill="none" height="53" viewBox="0 0 61 53" width="61" xmlns="http://www.w3.org/2000/svg" xmlns:xlink="http://www.w3.org/1999/xlink"><mask id="a" height="43" maskUnits="userSpaceOnUse" width="59" x="1" y="3"><rect fill="#fff" height="41.4393" rx="3.7125" stroke="#fff" stroke-width="1.06071" width="57.9393" x="1.53036" y="3.53036"/></mask><rect fill="#fff" height="41.4393" rx="3.7125" stroke="#f5f5f5" stroke-width="1.06071" width="57.9393" x="1.53036" y="3.53036"/><g mask="url(#a)"><path clip-rule="evenodd" d="m1 45.5h59v-22.6666h-59z" fill="#7cccf5" fill-rule="evenodd"/><path d="m26.2951 22.8334c0-.7811-.6332-1.4143-1.4142-1.4143-.7811 0-1.4143.6332-1.4143 1.4143zm.6746 6.1255c.6741.3944 1.5404.1677 1.9349-.5064.3945-.6742.1678-1.5405-.5064-1.935zm5.7869-2.5368c-.6564.4234-.8453 1.2987-.4219 1.9551s1.2987.8453 1.9551.422zm4.7765-3.5887c0-.7811-.6332-1.4143-1.4143-1.4143-.781 0-1.4142.6332-1.4142 1.4143zm-14.0665 0c0 2.6135 1.4079 4.8994 3.5031 6.1255l1.4285-2.4414c-1.2568-.7354-2.1031-2.1081-2.1031-3.6841zm10.8232 5.9658c1.9506-1.2581 3.2433-3.4617 3.2433-5.9658h-2.8285c0 1.5101-.7768 2.8334-1.948 3.5887z" fill="#445f42"/><path clip-rule="evenodd" d="m30.5 25.6667c1.5516 0 2.8095-1.9027 2.8095-4.25 0-2.3472-1.2579-4.25-2.8095-4.25-1.5517 0-2.8096 1.9028-2.8096 4.25 0 2.3473 1.2579 4.25 2.8096 4.25z" fill="#d89f3d" fill-rule="evenodd"/></g></svg>

<svg width="61" height="53" viewBox="0 0 61 53" fill="none" xmlns="http://www.w3.org/2000/svg">
<rect x="1.53036" y="3.53036" width="57.9393" height="41.4393" rx="3.7125" fill="white" stroke="#F5F5F5" stroke-width="1.06071"/>
<mask id="mask0" mask-type="alpha" maskUnits="userSpaceOnUse" x="1" y="3" width="59" height="43">
<rect x="1.53036" y="3.53036" width="57.9393" height="41.4393" rx="3.7125" fill="white" stroke="white" stroke-width="1.06071"/>
</mask>
<g mask="url(#mask0)">
<path fill-rule="evenodd" clip-rule="evenodd" d="M1 45.5H60V22.8334H1V45.5Z" fill="#7CCCF5"/>
<path d="M26.2951 22.8334C26.2951 22.0523 25.6619 21.4191 24.8809 21.4191C24.0998 21.4191 23.4666 22.0523 23.4666 22.8334H26.2951ZM26.9697 28.9589C27.6438 29.3533 28.5101 29.1266 28.9046 28.4525C29.2991 27.7783 29.0724 26.912 28.3982 26.5175L26.9697 28.9589ZM32.7566 26.4221C32.1002 26.8455 31.9113 27.7208 32.3347 28.3772C32.7581 29.0336 33.6334 29.2225 34.2898 28.7992L32.7566 26.4221ZM37.5331 22.8334C37.5331 22.0523 36.8999 21.4191 36.1188 21.4191C35.3378 21.4191 34.7046 22.0523 34.7046 22.8334H37.5331ZM23.4666 22.8334C23.4666 25.4469 24.8745 27.7328 26.9697 28.9589L28.3982 26.5175C27.1414 25.7821 26.2951 24.4094 26.2951 22.8334H23.4666ZM34.2898 28.7992C36.2404 27.5411 37.5331 25.3375 37.5331 22.8334H34.7046C34.7046 24.3435 33.9278 25.6668 32.7566 26.4221L34.2898 28.7992Z" fill="#445F42"/>
<path fill-rule="evenodd" clip-rule="evenodd" d="M30.5 25.6667C32.0516 25.6667 33.3095 23.764 33.3095 21.4167C33.3095 19.0695 32.0516 17.1667 30.5 17.1667C28.9483 17.1667 27.6904 19.0695 27.6904 21.4167C27.6904 23.764 28.9483 25.6667 30.5 25.6667Z" fill="#D89F3D"/>
</g>
</svg>
